X:1
T:Las me fault il
T:Las me fault il
T:Jean Le Cocq
C:Jean Le Cocq
%%score [ 1 2 [ 3 4 ] ]
L:1/8
Q:1/4=84
M:2/2
K:C
V:1 treble nm="Superius" snm="S"
V:2 treble nm="Altus" snm="A"
V:3 treble-8 nm="Tenor 1" snm="T 1"
V:4 treble-8 nm="Tenor 2" snm="T 2"
V:1
 d8 | B4 c4 | A4 z2 G2 | G2 G2 c4 | A4 G2 g2 | g3 f e2 d2 | c2 B2 A2 G2 | c6 B2 | e4 c2 e2- | %9
w: Las,|me fault|il tant|de mal sup-|por- ter, sans|que per- son- n'en|ait la cog- nois-|san- *||
 e2 dc B4 | d4 B4 | c4 A4 | z2 G2 G2 G2 | c4 A4 | G2 g2 g3 f | e2 d2 c2 B2 | A2 G2 c4- | c2 B2 e4 | %18
w: * * * ce,|fai- sant|sem- blant|tous- jours me|con- ten|ter, et si n'ay|plus de mon bien|es- pe- ran-||
 c2 e4 dc | B4 z2 B2 | c4 A4 | G4 z2 e2 | e2 g2 f2 e2 | d2 f3 ecd | e2 e2 d2 c2 | d4 B4 | %26
w: |ce, os-|tez moy|donc, mon|dieu, la sou- ve-|nan- * * * *|ce, la sou- ve-|nan- ce|
 z2 d4 B2 | G2 c4 A2- | A2 d3 c B2 | A2 G2 A4 | A8 |: A8 | A4 G4 | E4 z2 e2 | e2 d2 B2 B2 | %35
w: de ce|mal- heur au-|* quel _ _|ne puis pour-|veoir,|Ou|me don-|nez, ou|me don- nez si|
 B2 B2 c2 c2 | d4 G4 | z2 e2 g3 f | ed c4 B2 | c2 d2 e2 d2 | c3 d e2 d2 | e4 z4 | d4 g4- | %43
w: lon- gue pa- ti-|en- ce,|qu'un aul- tre|que _ moy, ne|le puis- se _|_ _ _ sca-|voir,|qu'un aul-|
 g2 f2 e2 d2 | c2 B2 A2 A2 | G8 | G8 :| %47
w: * tre que moy,|ne le puis- se|sca-|voir.|
V:2
 z4 G4- | G4 E4 | F4 D2 D2 | E6 G2 | F4 D4 | E2 G2 G3 F | E2 D2 C2 B,2 | C2 C2 G4- | G4 F2 G2- | %9
w: ce|_ de|ce mal- heur|au- quel|ne puis|pour- veoir, ou _|_ me don- nez,|ou me don-|_ nez *|
 G2 F2 G4- | G4 G4 | E4 F4 | D2 D2 E4- | E2 G2 F4 | D4 E2 G2 | G3 F E2 D2 | C2 B,2 C2 C2 | G8 | %18
w: * * si|_ lon-|gue pa-|ti- en- ce,|_ qu'un aul-|tre que moy,|ne le pui- se|sca- voir, ne le|puis-|
 F2 G4 F2 | G8 | z2 E2 F4 | D4 E2 G2 | c2 B2 c2 c2 | _B4 A2 A2 | G2 c2 A2 G2 | A4 G4- | G4 z2 G2- | %27
w: |se|sca voir,|qu'un aul- tre|que moy, ne le|puis- se sca-|voir. Las, me *|* fault|_ il|
 G2 E2 C2 F2- | F2 F2 D2 G2 | F2 ED E2 E2 | F8 |: z4 F4- | F4 D4 | G4 C2 G2 | c2 A2 G2 G2 | %35
w: _ tant de mal|_ sup- por- ter|sans _ _ _ que|per-|son-|_ n'en|ait cog- nois-|san- ce, fai- sant|
 G2 D2 F2 G2 | FEDC D2 E2- | EDEC D2 D2 | G3 F E2 D2 | C2 B,2 A,G, G2- |"^#" G2 F2 G4 | %41
w: sem- blant tous- jours|me * * * * *|* * * * con- ten-|ter, et si n'ay|plus de mon * bien|_ es- pe-|
 z2 G2 A2 G2 | F2 F2 EFGF/G/ | A2 A2 G2 D2 | E2 G3 F F2 | E3 D/C/ D4 | E8 :| %47
w: ran- ce, os-|tez moy _ _ _ _ _|donc, mon dieu, la|sou- ve- nan- ce|de ce _ mal-|heur|
V:3
 d8 | e6 A2- | A2 d4 B2 | c3 B A2 G2 | A2 c4 B2 | c4 G4 | z4 z2 g2 | g2 f2 e2 d2 | c2 B2 A2 G2 | %9
w: au-|quel ne|_ puis pour-|veoir, _ _ ou|me * *|don- nez,|ou|me don- nez si|lon- gue pa- ti|
 c4 d4 | z2 d4 e2- | e2 A4 d2- | d2 B2 c3 B | A2 G2 A2 c2- | c2 B2 c4 | G4 z4 | z2 g2 g2 f2 | %17
w: * en-|ce, qu'un|_ aul- tre|_ que moy, ne|le * * puis-||se|sca- voir, ne|
 e2 d2 c2 B2 | A2 G2 c4 | d4 z2 G2 | ABcB/c/ d2 c2- | c2 B2 c4 | z2 c2 a3 g | f6 e2- | %24
w: le puis se sca-|voir, qu'un aul-|tre que|moy, _ _ _ _ _ _|_ ne le|puis- se sca-|voir. Las|
 efge f2 g2- |"^#" g2 f2 g2 d2- | d2 B4 G2 | c4 A4 | d2 d2 B4 |"^#" c2 d4 c2 | d8 |: z2 c4 A2- | %32
w: * * * * me *|* * fault il|_ tant de|mal sup-|por- ter- sans|_ _ que|per-|son- n'en|
 A2 d4 G2- | G2 g4 e2 | a2 f2 z2 d2- | dc B2 A2 c2- | c2 BA B2 G2 | c2 A2 G4 | z2 e2 g3 f | %39
w: _ ait cog-|_ nois- san-|ce, fai- sant|_ _ sem- blant tous-|* jours _ me *|* * con-|ten ter, et|
 e2 d2 c2 B2 | A2 A2 G2 G2 | c3 B AG c2- | c2 B2 c2 e2 | d3 c BA B2 | G2 G2 c2 d2- | dc c4 B2 | %46
w: si n'ay plus de|mon bien es- pe-|ran- ce, os- _ tez|_ moy * donc,|mon dieu, la _ sou-|ve- nan- ce, la|* * sou- ve-|
 c8 :| %47
w: nan-|
V:4
 z4 G4- | G4 A4 | D4 G4 | C4 C2 C2 | F4 G4 | C2 c2 c2 B2 | c2 G2 A2 E2 | A2 A2 G4 | E4 F2 E2 | %9
w: ce|_ de|ce mal-|heur au- quel|ne puis|pour- veoir, ou me|don- nez, ou me|don- nez *||
 A4 G4 | G8 | A4 D4 | G4 C4 | C2 C2 F4 | G4 C2 c2 | c2 B2 c2 G2 | A2 E2 A2 A2 | G4 E4 | F2 E2 A4 | %19
w: * si|lon-|gue pa-|ti- en-|ce, qu'aul- tre|que moy, ne|le puis- se sca-|voir, qu'un aul- tre|que *||
 G8 | z2 C2 F4 | G4 C2 c2 | c2 G2 A2 A2 | _B4 FGAB | c2 c2 d2 e2 | d4 G4- | G4 G4 | E2 C2 F4 | %28
w: moy,|le le|puis- se sca-|voir. 2 * *||||||
 D4 G4 | A2 B2 A2 A2 | D8 |: F8 | D4 G4 | C4 z2 c2 | A2 d2 G2 G2 | G2 G2 F2 E2 | D2 G3 FED | %37
w: |||||||||
 C2 c4 B2 | c4 G4 | z4 z2 G2 | c6 B2 | A2 G2 F2 E2 | D2 D2 C4 | z2 D2 G2 G2 | E2 E2 F2 D2 | %45
w: ||||||||
 E2 C2 G4 | C8 :| %47
w: ||

